icons/modern/hot-face.svg

<svg width="32" height="32" viewBox="0 0 32 32" fill="none" xmlns="http://www.w3.org/2000/svg">
	<g filter="url(#filter0_i_6808_5229)">
		<path d="M15.9989 29.9978C25.3333 29.9978 29.9978 23.7303 29.9978 15.9989C29.9978 8.26751 25.3333 2 15.9989 2C6.66443 2 2 8.26751 2 15.9989C2 23.7303 6.66443 29.9978 15.9989 29.9978Z" fill="url(#paint0_radial_6808_5229)" />
	</g>
	<path d="M15.9989 29.9978C25.3333 29.9978 29.9978 23.7303 29.9978 15.9989C29.9978 8.26751 25.3333 2 15.9989 2C6.66443 2 2 8.26751 2 15.9989C2 23.7303 6.66443 29.9978 15.9989 29.9978Z" fill="url(#paint1_radial_6808_5229)" />
	<path d="M15.9989 29.9978C25.3333 29.9978 29.9978 23.7303 29.9978 15.9989C29.9978 8.26751 25.3333 2 15.9989 2C6.66443 2 2 8.26751 2 15.9989C2 23.7303 6.66443 29.9978 15.9989 29.9978Z" fill="url(#paint2_radial_6808_5229)" />
	<g opacity="0.9" filter="url(#filter1_f_6808_5229)">
		<path transform="rotate(-45 21.4658 8.53613)" fill="url(#paint3_radial_6808_5229)" style="mix-blend-mode:multiply" d="M22.9491 8.5361h0s1.4833 0 1.4833 1.4833v2.74s0 1.4833 -1.4832 1.4833h0s-1.4832 0 -1.4832 -1.4832v-2.74s0 -1.4832 1.4833 -1.4832" />
	</g>
	<path fill="url(#paint4_radial_6808_5229)" d="M5.5 20h0s2.5 0 2.5 2.5v2s0 2.5 -2.5 2.5h0s-2.5 0 -2.5 -2.5v-2s0 -2.5 2.5 -2.5" />
	<path fill="url(#paint5_radial_6808_5229)" d="M27.5 4h0s2.5 0 2.5 2.5v2s0 2.5 -2.5 2.5h0s-2.5 0 -2.5 -2.5v-2s0 -2.5 2.5 -2.5" />
	<g filter="url(#filter2_f_6808_5229)">
		<path fill-rule="evenodd" clip-rule="evenodd" d="M8.44878 11.9111C8.40731 11.5684 8.6515 11.257 8.99418 11.2155C10.2118 11.0682 10.8097 10.493 11.1217 9.99062C11.2843 9.72889 11.3762 9.47403 11.427 9.28526C11.4522 9.19155 11.4667 9.11626 11.4746 9.06753C11.4785 9.04323 11.4808 9.02578 11.4819 9.0162L11.4828 9.00816C11.5126 8.66627 11.8129 8.41203 12.1555 8.43957C12.4996 8.46723 12.7561 8.76857 12.7284 9.11264L12.1054 9.06256C12.7284 9.11264 12.7284 9.113 12.7284 9.11337L12.7283 9.11415L12.7282 9.1159L12.7278 9.12008L12.7267 9.13113C12.7259 9.13967 12.7247 9.15056 12.7232 9.16366C12.7201 9.18984 12.7154 9.22492 12.7084 9.26774C12.6946 9.35322 12.6716 9.47044 12.6341 9.60988C12.5595 9.88742 12.425 10.2615 12.1836 10.6501C11.6877 11.4485 10.7676 12.2601 9.14433 12.4565C8.80165 12.4979 8.49024 12.2538 8.44878 11.9111Z" fill="url(#paint6_radial_6808_5229)" fill-opacity="0.75" style="mix-blend-mode:multiply" />
	</g>
	<path d="M11.3661 8.4375C11.3661 8.4375 11.3661 11.0781 8.44421 11.3281" stroke="url(#paint7_radial_6808_5229)" stroke-width="1.25" stroke-linecap="round" stroke-linejoin="round" />
	<g filter="url(#filter3_f_6808_5229)">
		<path fill-rule="evenodd" clip-rule="evenodd" d="M23.8129 11.9111C23.8544 11.5684 23.6102 11.257 23.2675 11.2155C22.05 11.0682 21.452 10.493 21.14 9.99062C20.9774 9.72889 20.8855 9.47403 20.8347 9.28526C20.8095 9.19155 20.7951 9.11626 20.7872 9.06753C20.7832 9.04323 20.7809 9.02578 20.7798 9.0162L20.7789 9.00816C20.7491 8.66627 20.4488 8.41203 20.1062 8.43957C19.7621 8.46723 19.5056 8.76857 19.5333 9.11264L20.1563 9.06256C19.5333 9.11264 19.5333 9.113 19.5334 9.11337L19.5334 9.11415L19.5336 9.1159L19.5339 9.12008L19.535 9.13113C19.5358 9.13967 19.537 9.15056 19.5385 9.16366C19.5416 9.18984 19.5463 9.22492 19.5533 9.26774C19.5672 9.35322 19.5901 9.47044 19.6276 9.60988C19.7023 9.88742 19.8367 10.2615 20.0781 10.6501C20.574 11.4485 21.4941 12.2601 23.1174 12.4565C23.4601 12.4979 23.7715 12.2538 23.8129 11.9111Z" fill="url(#paint8_radial_6808_5229)" fill-opacity="0.75" style="mix-blend-mode:multiply" />
	</g>
	<path d="M20.6317 8.4375C20.6317 8.4375 20.6317 11.0781 23.5536 11.3281" stroke="url(#paint9_radial_6808_5229)" stroke-width="1.25" stroke-linecap="round" stroke-linejoin="round" />
	<g filter="url(#filter4_f_6808_5229)">
		<path d="M19.3697 13.4531C18.1157 14.1118 17.2617 15.4175 17.2617 16.9207C17.2617 19.0874 19.036 20.8437 21.2246 20.8437C23.4133 20.8437 25.1875 19.0874 25.1875 16.9207C25.1875 15.7652 24.6828 14.7264 23.8798 14.0084C23.358 14.1773 22.7995 14.2687 22.219 14.2687C21.1681 14.2687 20.1896 13.969 19.3697 13.4531Z" fill="#FB6E27" fill-opacity="0.75" />
	</g>
	<g filter="url(#filter5_f_6808_5229)">
		<path d="M11.9016 13.4531C13.1555 14.1118 14.0095 15.4175 14.0095 16.9207C14.0095 19.0874 12.2353 20.8437 10.0466 20.8437C7.85799 20.8437 6.08374 19.0874 6.08374 16.9207C6.08374 15.7652 6.58841 14.7264 7.39145 14.0084C7.91328 14.1773 8.47174 14.2687 9.05225 14.2687C10.1031 14.2687 11.0816 13.969 11.9016 13.4531Z" fill="#B24B35" />
	</g>
	<path d="M19.5141 12.4531C18.1742 13.1641 17.2617 14.5735 17.2617 16.1959C17.2617 18.5345 19.1575 20.4303 21.4961 20.4303C23.8347 20.4303 25.7305 18.5345 25.7305 16.1959C25.7305 14.9487 25.1912 13.8274 24.3332 13.0525C23.7756 13.2347 23.1789 13.3335 22.5586 13.3335C21.4358 13.3335 20.3902 13.01 19.5141 12.4531Z" fill="white" />
	<path fill="#402931" d="M17.9883 16.2662a1.9531 1.9531 0 1 0 3.9062 0a1.9531 1.9531 0 1 0 -3.9062 0" />
	<path d="M12.4837 12.4531C13.8236 13.1641 14.7361 14.5735 14.7361 16.1959C14.7361 18.5345 12.8403 20.4303 10.5017 20.4303C8.16313 20.4303 6.26733 18.5345 6.26733 16.1959C6.26733 14.9487 6.80657 13.8274 7.66463 13.0525C8.22221 13.2347 8.81892 13.3335 9.43921 13.3335C10.562 13.3335 11.6076 13.01 12.4837 12.4531Z" fill="white" />
	<path transform="matrix(-1 0 0 1 12.0564 16.2662)" fill="#402931" d="M-1.9531 0a1.9531 1.9531 0 1 0 3.9062 0a1.9531 1.9531 0 1 0 -3.9062 0" />
	<path fill="url(#paint10_linear_6808_5229)" d="M14.8223 20.9531h2.3531s2.8 0 2.8 2.8v0.0875s0 2.8 -2.8 2.8h-2.3531s-2.8 0 -2.8 -2.8v-0.0875s0 -2.8 2.8 -2.8" />
	<path d="M15.9999 28.5C19.0481 28.5 19.5343 25.8558 19.6287 25.0937C19.7012 24.4768 19.3746 23.7608 19.019 23.5503C18.6634 23.3399 17.5966 23.1439 15.9999 23.1439C14.4033 23.1439 13.3437 23.3399 12.9808 23.5503C12.6179 23.7608 12.2913 24.4768 12.3711 25.0937C12.4655 25.8558 12.9517 28.5 15.9999 28.5Z" fill="url(#paint11_radial_6808_5229)" />
	<g opacity="0.5" filter="url(#filter6_f_6808_5229)">
		<path d="M17.4401 26.6857C18.1658 26.3228 18.8916 25.597 18.8916 24.5084" stroke="white" />
	</g>
	<defs>
		<filter id="filter0_i_6808_5229" x="2" y="0" width="29.9978" height="29.9978" filterUnits="userSpaceOnUse" color-interpolation-filters="sRGB">
			<feFlood flood-opacity="0" result="BackgroundImageFix">
			</feFlood>
			<feBlend mode="normal" in="SourceGraphic" in2="BackgroundImageFix" result="shape">
			</feBlend>
			<feColorMatrix in="SourceAlpha" type="matrix" values="0 0 0 0 0 0 0 0 0 0 0 0 0 0 0 0 0 0 127 0" result="hardAlpha">
			</feColorMatrix>
			<feOffset dx="2" dy="-2">
			</feOffset>
			<feGaussianBlur stdDeviation="2">
			</feGaussianBlur>
			<feComposite in2="hardAlpha" operator="arithmetic" k2="-1" k3="1">
			</feComposite>
			<feColorMatrix type="matrix" values="0 0 0 0 0 0 0 0 0 0 0 0 0 0 0 0 0 0 0.08 0">
			</feColorMatrix>
			<feBlend mode="normal" in2="shape" result="effect1_innerShadow_6808_5229">
			</feBlend>
		</filter>
		<filter id="filter1_f_6808_5229" x="21.0802" y="6.05286" width="6.90405" height="6.90405" filterUnits="userSpaceOnUse" color-interpolation-filters="sRGB">
			<feFlood flood-opacity="0" result="BackgroundImageFix">
			</feFlood>
			<feBlend mode="normal" in="SourceGraphic" in2="BackgroundImageFix" result="shape">
			</feBlend>
			<feGaussianBlur stdDeviation="0.5" result="effect1_foregroundBlur_6808_5229">
			</feGaussianBlur>
		</filter>
		<filter id="filter2_f_6808_5229" x="7.94421" y="7.9375" width="5.28625" height="5.02356" filterUnits="userSpaceOnUse" color-interpolation-filters="sRGB">
			<feFlood flood-opacity="0" result="BackgroundImageFix">
			</feFlood>
			<feBlend mode="normal" in="SourceGraphic" in2="BackgroundImageFix" result="shape">
			</feBlend>
			<feGaussianBlur stdDeviation="0.25" result="effect1_foregroundBlur_6808_5229">
			</feGaussianBlur>
		</filter>
		<filter id="filter3_f_6808_5229" x="19.0312" y="7.9375" width="5.28625" height="5.02356" filterUnits="userSpaceOnUse" color-interpolation-filters="sRGB">
			<feFlood flood-opacity="0" result="BackgroundImageFix">
			</feFlood>
			<feBlend mode="normal" in="SourceGraphic" in2="BackgroundImageFix" result="shape">
			</feBlend>
			<feGaussianBlur stdDeviation="0.25" result="effect1_foregroundBlur_6808_5229">
			</feGaussianBlur>
		</filter>
		<filter id="filter4_f_6808_5229" x="15.2617" y="11.4531" width="11.9258" height="11.3906" filterUnits="userSpaceOnUse" color-interpolation-filters="sRGB">
			<feFlood flood-opacity="0" result="BackgroundImageFix">
			</feFlood>
			<feBlend mode="normal" in="SourceGraphic" in2="BackgroundImageFix" result="shape">
			</feBlend>
			<feGaussianBlur stdDeviation="1" result="effect1_foregroundBlur_6808_5229">
			</feGaussianBlur>
		</filter>
		<filter id="filter5_f_6808_5229" x="4.08374" y="11.4531" width="11.9258" height="11.3906" filterUnits="userSpaceOnUse" color-interpolation-filters="sRGB">
			<feFlood flood-opacity="0" result="BackgroundImageFix">
			</feFlood>
			<feBlend mode="normal" in="SourceGraphic" in2="BackgroundImageFix" result="shape">
			</feBlend>
			<feGaussianBlur stdDeviation="1" result="effect1_foregroundBlur_6808_5229">
			</feGaussianBlur>
		</filter>
		<filter id="filter6_f_6808_5229" x="16.2164" y="23.5084" width="4.17517" height="4.62451" filterUnits="userSpaceOnUse" color-interpolation-filters="sRGB">
			<feFlood flood-opacity="0" result="BackgroundImageFix">
			</feFlood>
			<feBlend mode="normal" in="SourceGraphic" in2="BackgroundImageFix" result="shape">
			</feBlend>
			<feGaussianBlur stdDeviation="0.5" result="effect1_foregroundBlur_6808_5229">
			</feGaussianBlur>
		</filter>
		<radialGradient id="paint0_radial_6808_5229" cx="0" cy="0" r="1" gradientUnits="userSpaceOnUse" gradientTransform="translate(25.5 9) rotate(132.839) scale(37.5033)">
			<stop stop-color="#FFF478">
			</stop>
			<stop offset="0.474827" stop-color="#FFB02E">
			</stop>
			<stop offset="1" stop-color="#F70A8D">
			</stop>
		</radialGradient>
		<radialGradient id="paint1_radial_6808_5229" cx="0" cy="0" r="1" gradientUnits="userSpaceOnUse" gradientTransform="translate(16 12.5) rotate(90) scale(17.8854)">
			<stop offset="0.823911" stop-color="#F59639" stop-opacity="0">
			</stop>
			<stop offset="1" stop-color="#FF63C4">
			</stop>
		</radialGradient>
		<radialGradient id="paint2_radial_6808_5229" cx="0" cy="0" r="1" gradientUnits="userSpaceOnUse" gradientTransform="translate(15.9989 35.1875) rotate(-90) scale(30.6875 67.5153)">
			<stop offset="0.34375" stop-color="#F59639" stop-opacity="0">
			</stop>
			<stop offset="1" stop-color="#E73550">
			</stop>
		</radialGradient>
		<radialGradient id="paint3_radial_6808_5229" cx="0" cy="0" r="1" gradientUnits="userSpaceOnUse" gradientTransform="translate(22.806 10.3696) rotate(95.5885) scale(6.42037 2.27261)">
			<stop stop-color="#993D29">
			</stop>
			<stop offset="1" stop-color="#B14B35" stop-opacity="0">
			</stop>
		</radialGradient>
		<radialGradient id="paint4_radial_6808_5229" cx="0" cy="0" r="1" gradientUnits="userSpaceOnUse" gradientTransform="translate(7.16667 20.3182) rotate(108.861) scale(7.73342 3.61978)">
			<stop stop-color="#5C98FF">
			</stop>
			<stop offset="0.805982" stop-color="#3D5BF1">
			</stop>
			<stop offset="0.962238" stop-color="#6065CA">
			</stop>
		</radialGradient>
		<radialGradient id="paint5_radial_6808_5229" cx="0" cy="0" r="1" gradientUnits="userSpaceOnUse" gradientTransform="translate(29.1667 4.31818) rotate(108.861) scale(7.73342 3.61978)">
			<stop stop-color="#5C98FF">
			</stop>
			<stop offset="0.805982" stop-color="#3D5BF1">
			</stop>
			<stop offset="0.962238" stop-color="#6065CA">
			</stop>
		</radialGradient>
		<radialGradient id="paint6_radial_6808_5229" cx="0" cy="0" r="1" gradientUnits="userSpaceOnUse" gradientTransform="translate(10.7941 11.1683) rotate(-78.6614) scale(4.595 3.23495)">
			<stop offset="0.255208" stop-color="#993D29">
			</stop>
			<stop offset="1" stop-color="#B14B35" stop-opacity="0">
			</stop>
		</radialGradient>
		<radialGradient id="paint7_radial_6808_5229" cx="0" cy="0" r="1" gradientUnits="userSpaceOnUse" gradientTransform="translate(9.06921 9.875) rotate(49.8812) scale(4.02522 9.57068)">
			<stop offset="0.137915" stop-color="#694F62">
			</stop>
			<stop offset="0.398102" stop-color="#482641">
			</stop>
		</radialGradient>
		<radialGradient id="paint8_radial_6808_5229" cx="0" cy="0" r="1" gradientUnits="userSpaceOnUse" gradientTransform="translate(21.4677 11.1683) rotate(-101.339) scale(4.595 3.23495)">
			<stop offset="0.255208" stop-color="#993D29">
			</stop>
			<stop offset="1" stop-color="#B14B35" stop-opacity="0">
			</stop>
		</radialGradient>
		<radialGradient id="paint9_radial_6808_5229" cx="0" cy="0" r="1" gradientUnits="userSpaceOnUse" gradientTransform="translate(22.9286 9.875) rotate(130.119) scale(4.02522 9.57068)">
			<stop offset="0.137915" stop-color="#694F62">
			</stop>
			<stop offset="0.398102" stop-color="#482641">
			</stop>
		</radialGradient>
		<linearGradient id="paint10_linear_6808_5229" x1="15.9989" y1="20.9531" x2="15.9989" y2="26.6406" gradientUnits="userSpaceOnUse">
			<stop stop-color="#6D014D">
			</stop>
			<stop offset="1" stop-color="#750C3F">
			</stop>
		</linearGradient>
		<radialGradient id="paint11_radial_6808_5229" cx="0" cy="0" r="1" gradientUnits="userSpaceOnUse" gradientTransform="translate(15.9887 29.4062) rotate(-90) scale(7.07513 12.2996)">
			<stop offset="0.135417" stop-color="#FF1C4A">
			</stop>
			<stop offset="0.619792" stop-color="#FF2B8F">
			</stop>
			<stop offset="0.755208" stop-color="#BB0773">
			</stop>
			<stop offset="0.869792" stop-color="#9F0762">
			</stop>
		</radialGradient>
	</defs>
</svg>

<svg width="32" height="32" fill="none" xmlns="http://www.w3.org/2000/svg"><g filter="url(#a)"><path d="M15.999 29.998c9.334 0 13.999-6.268 13.999-14 0-7.73-4.665-13.998-14-13.998C6.665 2 2 8.268 2 15.999c0 7.731 4.664 13.999 13.999 13.999Z" fill="url(#b)"/></g><path d="M15.999 29.998c9.334 0 13.999-6.268 13.999-14 0-7.73-4.665-13.998-14-13.998C6.665 2 2 8.268 2 15.999c0 7.731 4.664 13.999 13.999 13.999Z" fill="url(#c)"/><path d="M15.999 29.998c9.334 0 13.999-6.268 13.999-14 0-7.73-4.665-13.998-14-13.998C6.665 2 2 8.268 2 15.999c0 7.731 4.664 13.999 13.999 13.999Z" fill="url(#d)"/><g opacity=".9" filter="url(#e)"><path transform="rotate(-45 21.466 8.536)" fill="url(#f)" style="mix-blend-mode:multiply" d="M22.95 8.536s1.482 0 1.482 1.483v2.74s0 1.484-1.483 1.484-1.483 0-1.483-1.484v-2.74s0-1.483 1.483-1.483"/></g><path fill="url(#g)" d="M5.5 20S8 20 8 22.5v2S8 27 5.5 27 3 27 3 24.5v-2S3 20 5.5 20"/><path fill="url(#h)" d="M27.5 4S30 4 30 6.5v2s0 2.5-2.5 2.5S25 11 25 8.5v-2S25 4 27.5 4"/><g filter="url(#i)"><path fill-rule="evenodd" clip-rule="evenodd" d="M8.449 11.911a.625.625 0 0 1 .545-.695c1.218-.148 1.816-.723 2.128-1.225a2.657 2.657 0 0 0 .353-.923l.007-.052v-.008a.625.625 0 0 1 1.246.105l-.623-.05.623.05v.007l-.001.011a1.695 1.695 0 0 1-.019.137 3.905 3.905 0 0 1-.525 1.382c-.495.799-1.415 1.61-3.039 1.807a.625.625 0 0 1-.695-.546Z" fill="url(#j)" fill-opacity=".75" style="mix-blend-mode:multiply"/></g><path d="M11.366 8.438s0 2.64-2.922 2.89" stroke="url(#k)" stroke-width="1.25" stroke-linecap="round" stroke-linejoin="round"/><g filter="url(#l)"><path fill-rule="evenodd" clip-rule="evenodd" d="M23.813 11.911a.625.625 0 0 0-.546-.695c-1.217-.148-1.815-.723-2.127-1.225a2.657 2.657 0 0 1-.353-.923 1.11 1.11 0 0 1-.007-.052l-.001-.008a.625.625 0 0 0-1.246.105l.623-.05-.623.05v.007l.002.011a1.695 1.695 0 0 0 .018.137 3.908 3.908 0 0 0 .525 1.382c.496.799 1.416 1.61 3.04 1.807a.625.625 0 0 0 .695-.546Z" fill="url(#m)" fill-opacity=".75" style="mix-blend-mode:multiply"/></g><path d="M20.632 8.438s0 2.64 2.922 2.89" stroke="url(#n)" stroke-width="1.25" stroke-linecap="round" stroke-linejoin="round"/><g filter="url(#o)"><path d="M19.37 13.453a3.917 3.917 0 0 0-2.108 3.468c0 2.166 1.774 3.923 3.963 3.923 2.188 0 3.962-1.757 3.962-3.923a3.896 3.896 0 0 0-1.307-2.913c-.522.17-1.08.26-1.661.26-1.05 0-2.03-.299-2.85-.815Z" fill="#FB6E27" fill-opacity=".75"/></g><g filter="url(#p)"><path d="M11.902 13.453a3.918 3.918 0 0 1 2.107 3.468c0 2.166-1.774 3.923-3.962 3.923-2.189 0-3.963-1.757-3.963-3.923 0-1.156.504-2.195 1.307-2.913.522.17 1.08.26 1.661.26 1.051 0 2.03-.299 2.85-.815Z" fill="#B24B35"/></g><path d="M19.514 12.453a4.234 4.234 0 1 0 4.82.6 5.705 5.705 0 0 1-1.775.28 5.659 5.659 0 0 1-3.045-.88Z" fill="#fff"/><path fill="#402931" d="M17.988 16.266a1.953 1.953 0 1 0 3.906 0 1.953 1.953 0 1 0-3.906 0"/><path d="M12.484 12.453a4.234 4.234 0 1 1-4.82.6 5.705 5.705 0 0 0 1.775.28 5.659 5.659 0 0 0 3.045-.88Z" fill="#fff"/><path fill="#402931" d="M14.01 16.266a1.953 1.953 0 1 1-3.907 0 1.953 1.953 0 1 1 3.906 0"/><path fill="url(#q)" d="M14.822 20.953h2.353s2.8 0 2.8 2.8v.088s0 2.8-2.8 2.8h-2.353s-2.8 0-2.8-2.8v-.088s0-2.8 2.8-2.8"/><path d="M16 28.5c3.048 0 3.534-2.644 3.629-3.406.072-.617-.254-1.333-.61-1.544-.356-.21-1.422-.406-3.02-.406-1.596 0-2.655.196-3.018.406-.363.21-.69.927-.61 1.544.095.762.58 3.406 3.629 3.406Z" fill="url(#r)"/><g opacity=".5" filter="url(#s)"><path d="M17.44 26.686c.726-.363 1.452-1.089 1.452-2.178" stroke="#fff"/></g><defs><radialGradient id="b" cx="0" cy="0" r="1" gradientUnits="userSpaceOnUse" gradientTransform="rotate(132.839 10.786 10.065) scale(37.5033)"><stop stop-color="#FFF478"/><stop offset=".475" stop-color="#FFB02E"/><stop offset="1" stop-color="#F70A8D"/></radialGradient><radialGradient id="c" cx="0" cy="0" r="1" gradientUnits="userSpaceOnUse" gradientTransform="rotate(90 1.75 14.25) scale(17.8854)"><stop offset=".824" stop-color="#F59639" stop-opacity="0"/><stop offset="1" stop-color="#FF63C4"/></radialGradient><radialGradient id="d" cx="0" cy="0" r="1" gradientUnits="userSpaceOnUse" gradientTransform="matrix(0 -30.6875 67.5153 0 15.999 35.188)"><stop offset=".344" stop-color="#F59639" stop-opacity="0"/><stop offset="1" stop-color="#E73550"/></radialGradient><radialGradient id="f" cx="0" cy="0" r="1" gradientUnits="userSpaceOnUse" gradientTransform="rotate(95.588 6.7 15.526) scale(6.42037 2.27261)"><stop stop-color="#993D29"/><stop offset="1" stop-color="#B14B35" stop-opacity="0"/></radialGradient><radialGradient id="g" cx="0" cy="0" r="1" gradientUnits="userSpaceOnUse" gradientTransform="matrix(-2.5 7.31818 -3.42542 -1.17018 7.167 20.318)"><stop stop-color="#5C98FF"/><stop offset=".806" stop-color="#3D5BF1"/><stop offset=".962" stop-color="#6065CA"/></radialGradient><radialGradient id="h" cx="0" cy="0" r="1" gradientUnits="userSpaceOnUse" gradientTransform="matrix(-2.5 7.31818 -3.42542 -1.17018 29.167 4.318)"><stop stop-color="#5C98FF"/><stop offset=".806" stop-color="#3D5BF1"/><stop offset=".962" stop-color="#6065CA"/></radialGradient><radialGradient id="j" cx="0" cy="0" r="1" gradientUnits="userSpaceOnUse" gradientTransform="rotate(-78.661 12.212 -1.003) scale(4.595 3.23495)"><stop offset=".255" stop-color="#993D29"/><stop offset="1" stop-color="#B14B35" stop-opacity="0"/></radialGradient><radialGradient id="k" cx="0" cy="0" r="1" gradientUnits="userSpaceOnUse" gradientTransform="matrix(2.59375 3.07813 -7.3188 6.1671 9.07 9.875)"><stop offset=".138" stop-color="#694F62"/><stop offset=".398" stop-color="#482641"/></radialGradient><radialGradient id="m" cx="0" cy="0" r="1" gradientUnits="userSpaceOnUse" gradientTransform="rotate(-101.339 15.31 -3.211) scale(4.595 3.23495)"><stop offset=".255" stop-color="#993D29"/><stop offset="1" stop-color="#B14B35" stop-opacity="0"/></radialGradient><radialGradient id="n" cx="0" cy="0" r="1" gradientUnits="userSpaceOnUse" gradientTransform="rotate(130.119 9.168 10.269) scale(4.02522 9.57068)"><stop offset=".138" stop-color="#694F62"/><stop offset=".398" stop-color="#482641"/></radialGradient><radialGradient id="r" cx="0" cy="0" r="1" gradientUnits="userSpaceOnUse" gradientTransform="matrix(0 -7.07513 12.2996 0 15.989 29.406)"><stop offset=".135" stop-color="#FF1C4A"/><stop offset=".62" stop-color="#FF2B8F"/><stop offset=".755" stop-color="#BB0773"/><stop offset=".87" stop-color="#9F0762"/></radialGradient><filter id="a" x="2" y="0" width="29.998" height="29.998" filterUnits="userSpaceOnUse" color-interpolation-filters="sRGB"><feFlood flood-opacity="0" result="BackgroundImageFix"/><feBlend in="SourceGraphic" in2="BackgroundImageFix" result="shape"/><feColorMatrix in="SourceAlpha" values="0 0 0 0 0 0 0 0 0 0 0 0 0 0 0 0 0 0 127 0" result="hardAlpha"/><feOffset dx="2" dy="-2"/><feGaussianBlur stdDeviation="2"/><feComposite in2="hardAlpha" operator="arithmetic" k2="-1" k3="1"/><feColorMatrix values="0 0 0 0 0 0 0 0 0 0 0 0 0 0 0 0 0 0 0.08 0"/><feBlend in2="shape" result="effect1_innerShadow_6808_5229"/></filter><filter id="e" x="21.08" y="6.053" width="6.904" height="6.904" filterUnits="userSpaceOnUse" color-interpolation-filters="sRGB"><feFlood flood-opacity="0" result="BackgroundImageFix"/><feBlend in="SourceGraphic" in2="BackgroundImageFix" result="shape"/><feGaussianBlur stdDeviation=".5" result="effect1_foregroundBlur_6808_5229"/></filter><filter id="i" x="7.944" y="7.938" width="5.286" height="5.024" filterUnits="userSpaceOnUse" color-interpolation-filters="sRGB"><feFlood flood-opacity="0" result="BackgroundImageFix"/><feBlend in="SourceGraphic" in2="BackgroundImageFix" result="shape"/><feGaussianBlur stdDeviation=".25" result="effect1_foregroundBlur_6808_5229"/></filter><filter id="l" x="19.031" y="7.938" width="5.286" height="5.024" filterUnits="userSpaceOnUse" color-interpolation-filters="sRGB"><feFlood flood-opacity="0" result="BackgroundImageFix"/><feBlend in="SourceGraphic" in2="BackgroundImageFix" result="shape"/><feGaussianBlur stdDeviation=".25" result="effect1_foregroundBlur_6808_5229"/></filter><filter id="o" x="15.262" y="11.453" width="11.926" height="11.391" filterUnits="userSpaceOnUse" color-interpolation-filters="sRGB"><feFlood flood-opacity="0" result="BackgroundImageFix"/><feBlend in="SourceGraphic" in2="BackgroundImageFix" result="shape"/><feGaussianBlur stdDeviation="1" result="effect1_foregroundBlur_6808_5229"/></filter><filter id="p" x="4.084" y="11.453" width="11.926" height="11.391" filterUnits="userSpaceOnUse" color-interpolation-filters="sRGB"><feFlood flood-opacity="0" result="BackgroundImageFix"/><feBlend in="SourceGraphic" in2="BackgroundImageFix" result="shape"/><feGaussianBlur stdDeviation="1" result="effect1_foregroundBlur_6808_5229"/></filter><filter id="s" x="16.216" y="23.508" width="4.175" height="4.625" filterUnits="userSpaceOnUse" color-interpolation-filters="sRGB"><feFlood flood-opacity="0" result="BackgroundImageFix"/><feBlend in="SourceGraphic" in2="BackgroundImageFix" result="shape"/><feGaussianBlur stdDeviation=".5" result="effect1_foregroundBlur_6808_5229"/></filter><linearGradient id="q" x1="15.999" y1="20.953" x2="15.999" y2="26.641" gradientUnits="userSpaceOnUse"><stop stop-color="#6D014D"/><stop offset="1" stop-color="#750C3F"/></linearGradient></defs></svg>
